austria/municipalities/40714.svg

<?xml version="1.0" encoding="UTF-8"?>
<!DOCTYPE svg PUBLIC "-//W3C//DTD SVG 1.1//EN" "http://www.w3.org/Graphics/SVG/1.1/DTD/svg11.dtd">
<svg xmlns="http://www.w3.org/2000/svg" version="1.1" width="166px" height="207px" style="shape-rendering:geometricPrecision; text-rendering:geometricPrecision; image-rendering:optimizeQuality; fill-rule:evenodd; clip-rule:evenodd" xmlns:xlink="http://www.w3.org/1999/xlink">
<g><path style="opacity:1" fill="#000000" d="M -0.5,-0.5 C 54.8333,-0.5 110.167,-0.5 165.5,-0.5C 165.5,44.1667 165.5,88.8333 165.5,133.5C 157.466,172.533 134.133,196.866 95.5,206.5C 86.8333,206.5 78.1667,206.5 69.5,206.5C 29.5652,196.901 6.23185,171.901 -0.5,131.5C -0.5,87.5 -0.5,43.5 -0.5,-0.5 Z"/></g>
<g><path style="opacity:1" fill="#cb0000" d="M 3.5,3.5 C 56.1667,3.5 108.833,3.5 161.5,3.5C 161.667,47.8346 161.5,92.1679 161,136.5C 160.114,142.923 158.114,148.923 155,154.5C 152.138,152.93 149.305,151.263 146.5,149.5C 145.506,144.544 145.173,139.544 145.5,134.5C 143.5,134.5 141.5,134.5 139.5,134.5C 139.5,125.833 139.5,117.167 139.5,108.5C 135.167,108.5 130.833,108.5 126.5,108.5C 126.5,109.5 126.5,110.5 126.5,111.5C 124.278,111.822 122.444,111.155 121,109.5C 119.352,110.717 117.519,111.55 115.5,112C 114.663,113.011 114.33,114.178 114.5,115.5C 111.5,114.167 108.5,114.167 105.5,115.5C 105.5,111.833 105.5,108.167 105.5,104.5C 104.167,104.5 102.833,104.5 101.5,104.5C 101.5,102.5 101.5,100.5 101.5,98.5C 100.167,98.5 98.8333,98.5 97.5,98.5C 96.6201,70.8092 95.2868,43.1425 93.5,15.5C 86.5,15.5 79.5,15.5 72.5,15.5C 71.5209,43.1658 70.5209,70.8324 69.5,98.5C 67.8333,98.5 66.1667,98.5 64.5,98.5C 64.5,100.5 64.5,102.5 64.5,104.5C 63.1667,104.5 61.8333,104.5 60.5,104.5C 60.8226,108.226 60.4892,111.893 59.5,115.5C 57.2727,114.947 54.9393,114.947 52.5,115.5C 52.6495,114.448 52.4828,113.448 52,112.5C 50.3333,111.5 48.6667,110.5 47,109.5C 46.1667,110.5 45.3333,111.5 44.5,112.5C 43.2638,111.754 41.9305,111.421 40.5,111.5C 40.5,110.5 40.5,109.5 40.5,108.5C 36.1667,108.5 31.8333,108.5 27.5,108.5C 27.5,117.167 27.5,125.833 27.5,134.5C 24.8333,134.5 22.1667,134.5 19.5,134.5C 19.6659,139.511 19.4993,144.511 19,149.5C 16.3252,151.446 13.4919,153.113 10.5,154.5C 7.2205,148.595 5.05383,142.261 4,135.5C 3.50001,91.5013 3.33334,47.5013 3.5,3.5 Z"/></g>
<g><path style="opacity:1" fill="#fefffe" d="M 73.5,17.5 C 79.5,17.5 85.5,17.5 91.5,17.5C 93.2142,44.4983 94.8808,71.4983 96.5,98.5C 88.1667,98.5 79.8333,98.5 71.5,98.5C 72.1334,71.4991 72.8,44.4991 73.5,17.5 Z"/></g>
<g><path style="opacity:1" fill="#000000" d="M 76.5,71.5 C 80.5,71.5 84.5,71.5 88.5,71.5C 88.5,79.1667 88.5,86.8333 88.5,94.5C 84.5,94.5 80.5,94.5 76.5,94.5C 76.5,86.8333 76.5,79.1667 76.5,71.5 Z"/></g>
<g><path style="opacity:1" fill="#fefffe" d="M 66.5,100.5 C 77.5,100.5 88.5,100.5 99.5,100.5C 99.5,101.833 99.5,103.167 99.5,104.5C 88.5,104.5 77.5,104.5 66.5,104.5C 66.5,103.167 66.5,101.833 66.5,100.5 Z"/></g>
<g><path style="opacity:1" fill="#fefffe" d="M 61.5,106.5 C 75.5,106.5 89.5,106.5 103.5,106.5C 103.5,110.833 103.5,115.167 103.5,119.5C 101.325,119.318 99.3254,118.651 97.5,117.5C 94.6446,118.117 91.9779,119.117 89.5,120.5C 85.3245,117.879 81.1578,117.879 77,120.5C 73.5621,117.575 70.0621,117.242 66.5,119.5C 64.5283,118.695 63.0283,117.361 62,115.5C 61.502,112.518 61.3354,109.518 61.5,106.5 Z"/></g>
<g><path style="opacity:1" fill="#fefffe" d="M 28.5,110.5 C 31.8333,110.5 35.1667,110.5 38.5,110.5C 38.5,118.5 38.5,126.5 38.5,134.5C 35.1667,134.5 31.8333,134.5 28.5,134.5C 28.5,126.5 28.5,118.5 28.5,110.5 Z"/></g>
<g><path style="opacity:1" fill="#fefffe" d="M 127.5,110.5 C 130.833,110.5 134.167,110.5 137.5,110.5C 137.5,118.5 137.5,126.5 137.5,134.5C 134.167,134.5 130.833,134.5 127.5,134.5C 127.5,126.5 127.5,118.5 127.5,110.5 Z"/></g>
<g><path style="opacity:1" fill="#cb0000" d="M 46.5,111.5 C 48.2554,112.072 49.9221,112.906 51.5,114C 49.7832,116.881 47.7832,116.881 45.5,114C 46.2524,113.329 46.5858,112.496 46.5,111.5 Z"/></g>
<g><path style="opacity:1" fill="#cb0000" d="M 119.5,111.5 C 123.38,113.885 122.88,115.552 118,116.5C 117.308,115.975 116.808,115.308 116.5,114.5C 117.77,113.712 118.77,112.712 119.5,111.5 Z"/></g>
<g><path style="opacity:1" fill="#cb0000" d="M 123.5,113.5 C 124.5,113.5 125.5,113.5 126.5,113.5C 126.5,118.167 126.5,122.833 126.5,127.5C 119.5,127.5 112.5,127.5 105.5,127.5C 105.338,125.473 105.505,123.473 106,121.5C 107.77,122.276 109.603,122.11 111.5,121C 112.337,119.989 112.67,118.822 112.5,117.5C 115.518,117.665 118.518,117.498 121.5,117C 122.823,116.184 123.489,115.017 123.5,113.5 Z"/></g>
<g><path style="opacity:1" fill="#cb0000" d="M 40.5,114.5 C 43.7345,115.541 46.9011,116.874 50,118.5C 51.3561,117.62 52.8561,117.286 54.5,117.5C 54.7593,121.068 56.7593,122.401 60.5,121.5C 60.5,123.5 60.5,125.5 60.5,127.5C 53.8333,127.5 47.1667,127.5 40.5,127.5C 40.5,123.167 40.5,118.833 40.5,114.5 Z"/></g>
<g><path style="opacity:1" fill="#cb0000" d="M 56.5,116.5 C 59.9318,116.248 60.9318,117.581 59.5,120.5C 57.4501,119.923 56.4501,118.59 56.5,116.5 Z"/></g>
<g><path style="opacity:1" fill="#cb0000" d="M 108.5,116.5 C 109.995,116.415 110.995,117.081 111.5,118.5C 106.971,121.489 105.971,120.823 108.5,116.5 Z"/></g>
<g><path style="opacity:1" fill="#fefffe" d="M 69.5,119.5 C 70.8333,119.5 72.1667,119.5 73.5,119.5C 73.6272,124.107 71.9605,124.774 68.5,121.5C 68.8627,120.817 69.1961,120.15 69.5,119.5 Z"/></g>
<g><path style="opacity:1" fill="#fefffe" d="M 80.5,119.5 C 82.1667,119.5 83.8333,119.5 85.5,119.5C 85.5,120.833 85.5,122.167 85.5,123.5C 83.8333,123.5 82.1667,123.5 80.5,123.5C 80.5,122.167 80.5,120.833 80.5,119.5 Z"/></g>
<g><path style="opacity:1" fill="#fefffe" d="M 93.5,119.5 C 101.135,121.119 101.135,122.452 93.5,123.5C 93.5,122.167 93.5,120.833 93.5,119.5 Z"/></g>
<g><path style="opacity:1" fill="#fefffe" d="M 62.5,120.5 C 65.1398,120.954 67.4732,122.121 69.5,124C 72.275,124.778 74.775,124.278 77,122.5C 78.2353,124.563 80.0687,125.563 82.5,125.5C 85.2398,124.419 88.0731,123.419 91,122.5C 93.6062,124.317 96.4395,124.817 99.5,124C 100.308,122.294 101.641,121.461 103.5,121.5C 103.5,123.5 103.5,125.5 103.5,127.5C 89.5,127.5 75.5,127.5 61.5,127.5C 61.298,125.05 61.6314,122.717 62.5,120.5 Z"/></g>
<g><path style="opacity:1" fill="#fefffe" d="M 40.5,128.5 C 69.1667,128.5 97.8333,128.5 126.5,128.5C 126.5,130.5 126.5,132.5 126.5,134.5C 97.8333,134.5 69.1667,134.5 40.5,134.5C 40.5,132.5 40.5,130.5 40.5,128.5 Z"/></g>
<g><path style="opacity:1" fill="#fefffe" d="M -0.5,131.5 C 6.23185,171.901 29.5652,196.901 69.5,206.5C 46.1667,206.5 22.8333,206.5 -0.5,206.5C -0.5,181.5 -0.5,156.5 -0.5,131.5 Z"/></g>
<g><path style="opacity:1" fill="#fefffe" d="M 165.5,133.5 C 165.5,157.833 165.5,182.167 165.5,206.5C 142.167,206.5 118.833,206.5 95.5,206.5C 134.133,196.866 157.466,172.533 165.5,133.5 Z"/></g>
<g><path style="opacity:1" fill="#fefffe" d="M 20.5,135.5 C 36.8367,135.333 53.1701,135.5 69.5,136C 52.7233,137.32 36.7233,141.487 21.5,148.5C 20.5078,144.217 20.1744,139.884 20.5,135.5 Z"/></g>
<g><path style="opacity:1" fill="#fefffe" d="M 95.5,136.5 C 111.658,135.504 127.991,135.17 144.5,135.5C 144.666,139.846 144.499,144.179 144,148.5C 128.683,141.118 112.517,137.118 95.5,136.5 Z"/></g>
<g><path style="opacity:1" fill="#006632" d="M 64.5,138.5 C 95.2341,135.398 124.234,140.898 151.5,155C 152.804,155.804 153.471,156.971 153.5,158.5C 141.332,182.43 121.999,196.93 95.5,202C 57.3342,206.254 29.3342,191.588 11.5,158C 19.0501,152.39 27.3834,148.056 36.5,145C 45.8872,142.484 55.2205,140.318 64.5,138.5 Z"/></g>
</svg>

<svg xmlns="http://www.w3.org/2000/svg" width="166" height="207" style="shape-rendering:geometricPrecision;text-rendering:geometricPrecision;image-rendering:optimizeQuality;fill-rule:evenodd;clip-rule:evenodd"><path style="opacity:1" d="M-.5-.5h166v134c-8.034 39.033-31.367 63.366-70 73h-26c-39.935-9.599-63.268-34.599-70-75V-.5z"/><path style="opacity:1" fill="#cb0000" d="M3.5 3.5h158c.167 44.335 0 88.668-.5 133-.886 6.423-2.886 12.423-6 18a166.058 166.058 0 0 1-8.5-5 57.15 57.15 0 0 1-1-15h-6v-26h-13v3c-2.222.322-4.056-.345-5.5-2a14.444 14.444 0 0 1-5.5 2.5c-.837 1.011-1.17 2.178-1 3.5-3-1.333-6-1.333-9 0v-11h-4v-6h-4a2534.56 2534.56 0 0 0-4-83h-21c-.98 27.666-1.98 55.332-3 83h-5v6h-4a31.12 31.12 0 0 1-1 11c-2.227-.553-4.56-.553-7 0a4.932 4.932 0 0 0-.5-3l-5-3-2.5 3a6.845 6.845 0 0 0-4-1v-3h-13v26h-8c.166 5.011 0 10.011-.5 15a50.567 50.567 0 0 1-8.5 5c-3.28-5.905-5.446-12.239-6.5-19-.5-43.999-.667-87.999-.5-132z"/><path style="opacity:1" fill="#fefffe" d="M73.5 17.5h18c1.714 26.998 3.38 53.998 5 81h-25c.633-27 1.3-54 2-81z"/><path style="opacity:1" d="M76.5 71.5h12v23h-12v-23z"/><path style="opacity:1" fill="#fefffe" d="M66.5 100.5h33v4h-33v-4zM61.5 106.5h42v13a13.14 13.14 0 0 1-6-2 28.793 28.793 0 0 0-8 3c-4.175-2.621-8.342-2.621-12.5 0-3.438-2.925-6.938-3.258-10.5-1-1.972-.805-3.472-2.139-4.5-4a40.939 40.939 0 0 1-.5-9zM28.5 110.5h10v24h-10v-24zM127.5 110.5h10v24h-10v-24z"/><path style="opacity:1" fill="#cb0000" d="M46.5 111.5a19.17 19.17 0 0 1 5 2.5c-1.717 2.881-3.717 2.881-6 0 .752-.671 1.086-1.504 1-2.5zM119.5 111.5c3.88 2.385 3.38 4.052-1.5 5a4.457 4.457 0 0 1-1.5-2c1.27-.788 2.27-1.788 3-3z"/><path style="opacity:1" fill="#cb0000" d="M123.5 113.5h3v14h-21a18.453 18.453 0 0 1 .5-6c1.77.776 3.603.61 5.5-.5.837-1.011 1.17-2.178 1-3.5a40.914 40.914 0 0 0 9-.5c1.323-.816 1.989-1.983 2-3.5zM40.5 114.5a59.956 59.956 0 0 1 9.5 4c1.356-.88 2.856-1.214 4.5-1 .26 3.568 2.26 4.901 6 4v6h-20v-13z"/><path style="opacity:1" fill="#cb0000" d="M56.5 116.5c3.432-.252 4.432 1.081 3 4-2.05-.577-3.05-1.91-3-4zM108.5 116.5c1.495-.085 2.495.581 3 2-4.529 2.989-5.529 2.323-3-2z"/><path style="opacity:1" fill="#fefffe" d="M69.5 119.5h4c.127 4.607-1.54 5.274-5 2 .363-.683.696-1.35 1-2zM80.5 119.5h5v4h-5v-4zM93.5 119.5c7.635 1.619 7.635 2.952 0 4v-4z"/><path style="opacity:1" fill="#fefffe" d="M62.5 120.5c2.64.454 4.973 1.621 7 3.5 2.775.778 5.275.278 7.5-1.5 1.235 2.063 3.069 3.063 5.5 3a125.976 125.976 0 0 1 8.5-3c2.606 1.817 5.44 2.317 8.5 1.5.808-1.706 2.141-2.539 4-2.5v6h-42c-.202-2.45.131-4.783 1-7zM40.5 128.5h86v6h-86v-6zM-.5 131.5c6.732 40.401 30.065 65.401 70 75h-70v-75zM165.5 133.5v73h-70c38.633-9.634 61.966-33.967 70-73zM20.5 135.5c16.337-.167 32.67 0 49 .5-16.777 1.32-32.777 5.487-48 12.5a43.123 43.123 0 0 1-1-13zM95.5 136.5a600.937 600.937 0 0 1 49-1 84.902 84.902 0 0 1-.5 13c-15.317-7.382-31.483-11.382-48.5-12z"/><path style="opacity:1" fill="#006632" d="M64.5 138.5c30.734-3.102 59.734 2.398 87 16.5 1.304.804 1.971 1.971 2 3.5-12.168 23.93-31.501 38.43-58 43.5-38.166 4.254-66.166-10.412-84-44 7.55-5.61 15.883-9.944 25-13a420.224 420.224 0 0 1 28-6.5z"/></svg>
